dist/images/how-work-1.svg

<svg width="48" height="46" viewBox="0 0 48 46" fill="none" xmlns="http://www.w3.org/2000/svg">
<path d="M36.3957 0.505859C26.4871 2.34051 16.7374 4.80385 7.14648 7.89597C7.51807 13.8823 8.96207 19.5977 11.4786 25.0421C21.3872 23.2074 31.1369 20.744 40.7278 17.652C40.3562 11.6656 38.9122 5.95027 36.3957 0.505859V0.505859Z" fill="url(#paint0_linear_747_297646)"/>
<path d="M37.6651 12.5992C37.5473 12.6158 37.43 12.6384 37.3124 12.6681C35.5192 13.1212 34.4333 14.9413 34.8862 16.7336C34.8996 16.7867 34.9139 16.8395 34.93 16.8909C31.8407 17.8095 28.7265 18.6659 25.6235 19.4499C22.5204 20.234 19.3742 20.9594 16.2183 21.6185C16.208 21.5657 16.1956 21.5124 16.1822 21.4593C15.7294 19.667 13.9092 18.5812 12.117 19.034C11.9994 19.0637 11.8845 19.0998 11.7739 19.1408C11.1059 17.1156 10.5841 15.0502 10.21 12.9507C10.3268 12.9343 10.4451 12.9115 10.5626 12.8818C12.3549 12.429 13.4408 10.6089 12.9879 8.81657C12.9745 8.76349 12.9601 8.7107 12.9441 8.65928C16.0343 7.74034 19.1474 6.88426 22.2506 6.10023C25.3538 5.31621 28.5008 4.59064 31.6557 3.93164C31.6661 3.98453 31.6785 4.03781 31.6919 4.09089C32.1447 5.88321 33.9648 6.96912 35.7581 6.516C35.8756 6.48629 35.9896 6.45041 36.1011 6.40915C36.7691 8.43433 37.2909 10.4996 37.6651 12.5992V12.5992Z" fill="#14A84F"/>
<path d="M34.9378 4.00335C34.3019 4.00335 33.963 3.20182 34.4186 2.75105C34.6559 2.51624 35.0346 2.47009 35.3201 2.64479C35.5765 2.80169 35.7131 3.11051 35.6569 3.40585C35.592 3.74702 35.2867 4.00335 34.9378 4.00335V4.00335Z" fill="#14A84F"/>
<path d="M12.936 23.0124C12.2643 23.0124 11.9489 22.1379 12.4711 21.7128C12.9935 21.2875 13.7866 21.7608 13.6545 22.4229C13.587 22.7616 13.2821 23.0124 12.936 23.0124Z" fill="#14A84F"/>
<path d="M9.74236 10.3696C9.08816 10.3696 8.76291 9.53255 9.24946 9.09273C9.47157 8.89193 9.80405 8.84628 10.0715 8.98157C10.355 9.12499 10.5206 9.44701 10.4641 9.7614C10.4019 10.1073 10.0958 10.3696 9.74236 10.3696V10.3696Z" fill="#14A84F"/>
<path d="M25.0764 17.2457C27.2189 16.7045 28.4508 14.2666 27.8279 11.8005C27.2051 9.33442 24.9633 7.77394 22.8208 8.31508C20.6783 8.85623 19.4464 11.2941 20.0692 13.7602C20.6921 16.2263 22.9339 17.7868 25.0764 17.2457Z" fill="#14A84F"/>
<path d="M24.1965 18.0784C23.288 18.0784 22.3839 17.7877 21.574 17.224C20.4836 16.4651 19.6934 15.2963 19.3489 13.9328C19.0044 12.5694 19.1446 11.1654 19.7436 9.97971C20.3602 8.75929 21.3852 7.91406 22.6299 7.59957C23.8743 7.28508 25.178 7.54199 26.3003 8.32309C27.3908 9.08199 28.1809 10.2508 28.5254 11.6143C28.8699 12.9777 28.7298 14.3816 28.1307 15.5673C27.5141 16.7878 26.4891 17.633 25.2444 17.9475C24.898 18.0352 24.5468 18.0784 24.1965 18.0784V18.0784ZM23.6721 8.93643C23.4426 8.93643 23.214 8.96448 22.989 9.02138C22.1624 9.23029 21.4746 9.80551 21.0523 10.6412C20.6127 11.5114 20.5126 12.5529 20.7705 13.5737C21.0284 14.5946 21.6112 15.4635 22.4115 16.0206C23.18 16.5554 24.0584 16.7348 24.8852 16.526C25.7118 16.3171 26.3997 15.7418 26.8219 14.9062C27.2615 14.0359 27.3616 12.9944 27.1037 11.9736C26.8458 10.9528 26.263 10.0838 25.4627 9.5268C24.9034 9.13752 24.2856 8.93643 23.6721 8.93643V8.93643Z" fill="url(#paint1_linear_747_297646)"/>
<path d="M44.3573 10.3223C34.3012 9.67383 24.2451 9.67383 14.189 10.3223C13.0828 16.2172 13.0828 22.1122 14.189 28.0071C24.2451 28.6556 34.3012 28.6556 44.3573 28.0071C45.4635 22.1121 45.4635 16.2171 44.3573 10.3223V10.3223Z" fill="url(#paint2_linear_747_297646)"/>
<path d="M42.6262 22.3563C42.5079 22.3436 42.3886 22.3368 42.2674 22.3368C40.4178 22.3368 38.9191 23.8354 38.9191 25.6841C38.9191 25.7388 38.9201 25.7936 38.923 25.8473C35.7029 25.9813 32.4739 26.0487 29.2732 26.0487C26.0726 26.0487 22.8446 25.9813 19.6234 25.8473C19.6263 25.7936 19.6273 25.7388 19.6273 25.6841C19.6273 23.8354 18.1287 22.3368 16.28 22.3368C16.1588 22.3368 16.0386 22.3436 15.9213 22.3563C15.7697 20.2291 15.7697 18.0989 15.9213 15.9717C16.0386 15.9844 16.1588 15.9912 16.28 15.9912C18.1287 15.9912 19.6273 14.4926 19.6273 12.6439C19.6273 12.5892 19.6263 12.5344 19.6234 12.4807C22.8446 12.3468 26.0726 12.2793 29.2732 12.2793C32.4739 12.2793 35.7029 12.3468 38.923 12.4807C38.9201 12.5344 38.9191 12.5892 38.9191 12.6439C38.9191 14.4926 40.4178 15.9912 42.2674 15.9912C42.3886 15.9912 42.5079 15.9844 42.6262 15.9717C42.7777 18.0989 42.7777 20.2291 42.6262 22.3563Z" fill="#14A84F"/>
<path d="M42.2671 26.4177C41.5941 26.4177 41.2811 25.5471 41.8015 25.118C42.0391 24.9222 42.3867 24.8985 42.6494 25.0592C42.9157 25.2221 43.0503 25.5467 42.9799 25.8503C42.9041 26.1777 42.6042 26.4177 42.2671 26.4177Z" fill="#14A84F"/>
<path d="M42.2667 13.3776C41.9597 13.3776 41.68 13.1799 41.5762 12.8915C41.4712 12.5997 41.5679 12.2603 41.8124 12.069C42.3294 11.6643 43.1024 12.1193 42.9884 12.7702C42.9277 13.1165 42.6187 13.3776 42.2667 13.3776Z" fill="#14A84F"/>
<path d="M16.2796 13.3765C15.6171 13.3765 15.3024 12.5357 15.7925 12.0955C16.0374 11.8756 16.4129 11.8517 16.6862 12.0333C16.9319 12.1964 17.058 12.5058 16.9968 12.7942C16.9259 13.1289 16.6225 13.3765 16.2796 13.3765V13.3765Z" fill="#14A84F"/>
<path d="M29.2728 23.7673C31.4815 23.7673 33.2721 21.7063 33.2721 19.1639C33.2721 16.6216 31.4815 14.5605 29.2728 14.5605C27.064 14.5605 25.2734 16.6216 25.2734 19.1639C25.2734 21.7063 27.064 23.7673 29.2728 23.7673Z" fill="#14A84F"/>
<path d="M29.2725 24.5013C26.663 24.5013 24.54 22.1073 24.54 19.1647C24.54 16.2221 26.663 13.8281 29.2725 13.8281C31.882 13.8281 34.005 16.2222 34.005 19.1647C34.005 22.1073 31.8821 24.5013 29.2725 24.5013V24.5013ZM29.2725 15.2945C27.4715 15.2945 26.0064 17.0307 26.0064 19.1647C26.0064 21.2987 27.4715 23.0349 29.2725 23.0349C31.0735 23.0349 32.5386 21.2987 32.5386 19.1647C32.5386 17.0306 31.0735 15.2945 29.2725 15.2945V15.2945Z" fill="url(#paint3_linear_747_297646)"/>
<path d="M39.4644 19.898H36.3435C35.9385 19.898 35.6104 19.5698 35.6104 19.1648C35.6104 18.7599 35.9385 18.4316 36.3435 18.4316H39.4644C39.8694 18.4316 40.1976 18.7599 40.1976 19.1648C40.1976 19.5698 39.8694 19.898 39.4644 19.898Z" fill="url(#paint4_linear_747_297646)"/>
<path d="M22.2017 19.898H19.0809C18.6758 19.898 18.3477 19.5698 18.3477 19.1648C18.3477 18.7599 18.6758 18.4316 19.0809 18.4316H22.2017C22.6067 18.4316 22.9349 18.7599 22.9349 19.1648C22.9349 19.5698 22.6067 19.898 22.2017 19.898Z" fill="url(#paint5_linear_747_297646)"/>
<path d="M46.8323 31.9073H46.8314L34.221 42.0227C33.1846 42.8541 31.8549 43.2327 30.5352 43.0716L13.539 41.0031L9.01042 42.6783C6.57778 40.1765 7.57747 32.1266 7.57747 32.1266L8.65595 31.8315C8.56239 30.3904 9.24202 28.9594 10.5035 28.1407C10.6426 28.0496 10.7885 27.967 10.942 27.8919L18.23 24.3326L21.9782 22.5019C22.1823 22.4024 22.3905 22.324 22.6022 22.2666C24.1689 21.8374 25.8697 22.5264 26.6716 24.0037C27.5815 25.6809 27.0081 27.7771 25.3713 28.7578L19.3127 32.3888L29.5082 34.1646C30.7351 34.3779 31.9974 34.1199 33.043 33.4411L43.1828 26.8588C44.5429 25.9751 46.3525 26.2821 47.3466 27.5647C47.6038 27.8969 47.7843 28.2654 47.8897 28.6482C48.2085 29.812 47.8315 31.1054 46.8323 31.9073Z" fill="#F1D0A5"/>
<path d="M30.5075 40.3547C23.5253 41.2616 18.7117 37.1673 15.7995 33.3153C14.3555 31.4052 14.8423 28.6734 16.8582 27.3812C23.8892 22.8743 25.7078 23.0399 26.6716 24.0037C25.8697 22.5264 24.1688 21.8374 22.6022 22.2666C22.3905 22.324 22.1822 22.4024 21.9782 22.5019L18.23 24.3326L12.3229 27.2174C12.3229 27.2174 12.3223 27.2184 12.3222 27.2186L10.942 27.8919C9.40143 28.644 8.55229 30.231 8.65601 31.8315L4.15723 32.8739C4.15723 32.8739 6.57784 40.1766 9.01058 42.6785L13.5392 41.0034L30.5353 43.0718C31.855 43.2329 33.1848 42.8543 34.2211 42.0229L46.8316 31.9075C42.4738 30.725 35.2102 39.6354 30.5075 40.3547Z" fill="#F1B986"/>
<path d="M22.7038 28.5639C22.1033 28.5639 21.5207 28.2725 21.165 27.7414C20.3927 26.5881 19.9616 24.8729 19.9436 24.8005C19.8461 24.4075 20.0857 24.0098 20.4787 23.9124C20.8719 23.8149 21.2694 24.0544 21.3668 24.4474C21.375 24.4801 21.7592 25.9933 22.3834 26.9254C22.4929 27.0888 22.7176 27.1429 22.895 27.0483L23.8039 26.5636C24.161 26.3732 24.6054 26.5082 24.7958 26.8655C24.9864 27.2228 24.8512 27.6669 24.4939 27.8574L23.5851 28.3421C23.3041 28.4921 23.0017 28.5639 22.7038 28.5639V28.5639Z" fill="#F1B986"/>
<path d="M6.06899 31.1133C3.8875 31.3795 1.86446 32.0943 0 33.2578C1.21857 37.4148 2.65974 41.4932 4.3234 45.4929C6.5049 45.2267 8.52793 44.5118 10.3924 43.3483C9.17383 39.1913 7.73266 35.1129 6.06899 31.1133V31.1133Z" fill="url(#paint6_linear_747_297646)"/>
<path d="M10.3925 43.3481C8.52821 44.5124 6.50557 45.227 4.32359 45.4929C3.89051 44.4508 3.47308 43.4038 3.07031 42.3519C5.34322 42.0714 7.45384 41.3333 9.40218 40.1367C9.74727 41.2023 10.0777 42.2728 10.3925 43.3481V43.3481Z" fill="#5B8EB8"/>
<path d="M6.39845 42.9828C5.99617 42.9828 5.62537 42.7249 5.48342 42.3491C5.34128 41.9728 5.45106 41.5345 5.75382 41.2694C6.06518 40.9969 6.52856 40.9514 6.88695 41.1583C7.24475 41.3648 7.43851 41.79 7.35649 42.1958C7.26538 42.6466 6.85967 42.9828 6.39845 42.9828Z" fill="#EEEBEE"/>
<defs>
<linearGradient id="paint0_linear_747_297646" x1="23.9371" y1="0.505859" x2="23.9371" y2="25.0421" gradientUnits="userSpaceOnUse">
<stop stop-color="#43D26B"/>
<stop offset="1" stop-color="#1EB463"/>
</linearGradient>
<linearGradient id="paint1_linear_747_297646" x1="23.9372" y1="7.46875" x2="23.9372" y2="18.0784" gradientUnits="userSpaceOnUse">
<stop stop-color="#43D26B"/>
<stop offset="1" stop-color="#1EB463"/>
</linearGradient>
<linearGradient id="paint2_linear_747_297646" x1="29.2732" y1="9.83594" x2="29.2732" y2="28.4934" gradientUnits="userSpaceOnUse">
<stop stop-color="#43D26B"/>
<stop offset="1" stop-color="#1EB463"/>
</linearGradient>
<linearGradient id="paint3_linear_747_297646" x1="29.2725" y1="13.8281" x2="29.2725" y2="24.5013" gradientUnits="userSpaceOnUse">
<stop stop-color="#43D26B"/>
<stop offset="1" stop-color="#1EB463"/>
</linearGradient>
<linearGradient id="paint4_linear_747_297646" x1="37.904" y1="18.4316" x2="37.904" y2="19.898" gradientUnits="userSpaceOnUse">
<stop stop-color="#43D26B"/>
<stop offset="1" stop-color="#1EB463"/>
</linearGradient>
<linearGradient id="paint5_linear_747_297646" x1="20.6413" y1="18.4316" x2="20.6413" y2="19.898" gradientUnits="userSpaceOnUse">
<stop stop-color="#43D26B"/>
<stop offset="1" stop-color="#1EB463"/>
</linearGradient>
<linearGradient id="paint6_linear_747_297646" x1="5.1962" y1="31.1133" x2="5.1962" y2="45.4929" gradientUnits="userSpaceOnUse">
<stop stop-color="#4396D2"/>
<stop offset="1" stop-color="#1E6CB4"/>
</linearGradient>
</defs>
</svg>

<svg width="48" height="46" fill="none" xmlns="http://www.w3.org/2000/svg"><path d="M36.396.506a234.154 234.154 0 00-29.25 7.39 47.538 47.538 0 004.333 17.146 234.182 234.182 0 0029.249-7.39A47.538 47.538 0 0036.396.506z" fill="url(#paint0_linear_747_297646)"/><path d="M37.665 12.6a3.347 3.347 0 00-2.735 4.292 232.78 232.78 0 01-18.712 4.727 3.347 3.347 0 00-4.444-2.478 44.88 44.88 0 01-1.564-6.19 3.347 3.347 0 002.734-4.291 232.583 232.583 0 0118.712-4.728c.01.053.023.106.036.159a3.347 3.347 0 004.41 2.318 44.889 44.889 0 011.563 6.19zm-2.727-8.597c-.636 0-.975-.801-.52-1.252a.743.743 0 01.902-.106.74.74 0 01.337.76.74.74 0 01-.72.598zM12.936 23.012c-.672 0-.987-.874-.465-1.3.522-.424 1.316.049 1.184.71a.739.739 0 01-.719.59zM9.742 10.37c-.654 0-.98-.837-.493-1.277a.74.74 0 01.822-.111c.284.143.45.465.393.78a.741.741 0 01-.722.608z" fill="#14A84F"/><path d="M25.076 17.246c2.143-.541 3.375-2.98 2.752-5.445-.623-2.467-2.865-4.027-5.007-3.486-2.143.541-3.375 2.98-2.752 5.445.623 2.466 2.865 4.027 5.007 3.486z" fill="#14A84F"/><path d="M24.197 18.078c-.909 0-1.813-.29-2.623-.854-1.09-.759-1.88-1.928-2.225-3.291-.345-1.364-.204-2.768.395-3.953.616-1.22 1.641-2.066 2.886-2.38 1.244-.315 2.548-.058 3.67.723 1.09.759 1.88 1.928 2.225 3.291.345 1.364.205 2.768-.394 3.953-.617 1.22-1.642 2.066-2.887 2.38a4.243 4.243 0 01-1.047.131zm-.525-9.142c-.23 0-.458.028-.683.085-.827.21-1.514.785-1.937 1.62-.44.87-.54 1.912-.282 2.933.258 1.02.841 1.89 1.642 2.447.768.534 1.646.714 2.473.505.827-.209 1.515-.784 1.937-1.62.44-.87.54-1.912.282-2.932-.258-1.021-.841-1.89-1.641-2.447-.56-.39-1.177-.59-1.79-.59z" fill="url(#paint1_linear_747_297646)"/><path d="M44.357 10.322a234.16 234.16 0 00-30.168 0 47.536 47.536 0 000 17.685c10.056.649 20.112.649 30.168 0a47.536 47.536 0 000-17.685z" fill="url(#paint2_linear_747_297646)"/><path d="M42.626 22.356a3.348 3.348 0 00-3.703 3.491 232.517 232.517 0 01-19.3 0 3.347 3.347 0 00-3.702-3.491 44.871 44.871 0 010-6.384 3.347 3.347 0 003.702-3.491c3.222-.134 6.45-.202 9.65-.202s6.43.068 9.65.202a3.348 3.348 0 003.703 3.491 44.9 44.9 0 010 6.384zm-.359 4.062c-.673 0-.986-.87-.466-1.3a.74.74 0 01.848-.059.74.74 0 01.33.791.739.739 0 01-.712.568zm0-13.04a.74.74 0 01-.69-.486.74.74 0 01.235-.823c.517-.405 1.29.05 1.176.701a.74.74 0 01-.721.608zm-25.987-.001c-.663 0-.978-.841-.488-1.282a.74.74 0 01.894-.062.741.741 0 01.31.761.74.74 0 01-.716.582z" fill="#14A84F"/><path d="M29.273 23.767c2.209 0 4-2.06 4-4.603 0-2.542-1.792-4.604-4-4.604-2.209 0-4 2.062-4 4.604 0 2.542 1.791 4.603 4 4.603z" fill="#14A84F"/><path d="M29.273 24.501c-2.61 0-4.733-2.394-4.733-5.336 0-2.943 2.123-5.337 4.733-5.337 2.609 0 4.732 2.394 4.732 5.337 0 2.942-2.123 5.336-4.733 5.336zm0-9.207c-1.802 0-3.267 1.737-3.267 3.87 0 2.135 1.465 3.87 3.267 3.87 1.8 0 3.266-1.735 3.266-3.87 0-2.133-1.466-3.87-3.267-3.87z" fill="url(#paint3_linear_747_297646)"/><path d="M39.464 19.898h-3.12a.733.733 0 110-1.466h3.12a.733.733 0 110 1.466z" fill="url(#paint4_linear_747_297646)"/><path d="M22.202 19.898H19.08a.733.733 0 110-1.466h3.12a.733.733 0 110 1.466z" fill="url(#paint5_linear_747_297646)"/><path d="M46.832 31.907L34.22 42.023a4.936 4.936 0 01-3.686 1.049L13.54 41.003l-4.53 1.675c-2.432-2.502-1.433-10.551-1.433-10.551l1.079-.296a4.09 4.09 0 012.286-3.94l7.288-3.558 3.748-1.831a3.563 3.563 0 013.393 6.256l-6.058 3.63 10.195 1.777a4.938 4.938 0 003.535-.724l10.14-6.582a3.118 3.118 0 013.65 5.048z" fill="#F1D0A5"/><path d="M30.508 40.355c-6.983.907-11.796-3.188-14.708-7.04a4.105 4.105 0 011.058-5.934c7.031-4.507 8.85-4.341 9.814-3.377a3.563 3.563 0 00-4.694-1.502l-3.748 1.83-5.907 2.885v.002l-1.381.673a4.088 4.088 0 00-2.286 3.94l-4.499 1.042s2.42 7.303 4.854 9.804l4.528-1.675 16.996 2.069a4.936 4.936 0 003.686-1.05l12.61-10.114c-4.357-1.183-11.62 7.727-16.324 8.447z" fill="#F1B986"/><path d="M22.704 28.564c-.6 0-1.183-.291-1.539-.823-.772-1.153-1.203-2.868-1.221-2.94a.733.733 0 011.423-.354c.008.033.392 1.546 1.016 2.478.11.164.335.218.512.123l.909-.484a.733.733 0 01.69 1.293l-.909.485c-.28.15-.583.222-.881.222z" fill="#F1B986"/><path d="M6.069 31.113A14.69 14.69 0 000 33.258a118.99 118.99 0 004.323 12.235 14.69 14.69 0 006.07-2.145 118.978 118.978 0 00-4.324-12.235z" fill="url(#paint6_linear_747_297646)"/><path d="M10.393 43.348a14.672 14.672 0 01-6.07 2.145c-.432-1.042-.85-2.09-1.253-3.141a15.616 15.616 0 006.332-2.215c.345 1.065.676 2.136.99 3.211z" fill="#5B8EB8"/><path d="M6.398 42.983a.989.989 0 01-.915-.634.986.986 0 01.27-1.08.987.987 0 011.134-.11.986.986 0 01.47 1.037.988.988 0 01-.959.787z" fill="#EEEBEE"/><defs><linearGradient id="paint0_linear_747_297646" x1="23.937" y1=".506" x2="23.937" y2="25.042" gradientUnits="userSpaceOnUse"><stop stop-color="#43D26B"/><stop offset="1" stop-color="#1EB463"/></linearGradient><linearGradient id="paint1_linear_747_297646" x1="23.937" y1="7.469" x2="23.937" y2="18.078" gradientUnits="userSpaceOnUse"><stop stop-color="#43D26B"/><stop offset="1" stop-color="#1EB463"/></linearGradient><linearGradient id="paint2_linear_747_297646" x1="29.273" y1="9.836" x2="29.273" y2="28.493" gradientUnits="userSpaceOnUse"><stop stop-color="#43D26B"/><stop offset="1" stop-color="#1EB463"/></linearGradient><linearGradient id="paint3_linear_747_297646" x1="29.273" y1="13.828" x2="29.273" y2="24.501" gradientUnits="userSpaceOnUse"><stop stop-color="#43D26B"/><stop offset="1" stop-color="#1EB463"/></linearGradient><linearGradient id="paint4_linear_747_297646" x1="37.904" y1="18.432" x2="37.904" y2="19.898" gradientUnits="userSpaceOnUse"><stop stop-color="#43D26B"/><stop offset="1" stop-color="#1EB463"/></linearGradient><linearGradient id="paint5_linear_747_297646" x1="20.641" y1="18.432" x2="20.641" y2="19.898" gradientUnits="userSpaceOnUse"><stop stop-color="#43D26B"/><stop offset="1" stop-color="#1EB463"/></linearGradient><linearGradient id="paint6_linear_747_297646" x1="5.196" y1="31.113" x2="5.196" y2="45.493" gradientUnits="userSpaceOnUse"><stop stop-color="#4396D2"/><stop offset="1" stop-color="#1E6CB4"/></linearGradient></defs></svg>
